flaticon/social-media/tumblr.svg

<svg xmlns="http://www.w3.org/2000/svg" width="32" height="32" viewBox="0 0 24 24">
    <path d="M 18.78125 18.441406 C 18.140625 18.878906 17.578125 19.121094 16.699219 19.28125 C 16.179688 19.398438 15.738281 19.398438 15.300781 19.359375 C 14.859375 19.320312 14.421875 19.160156 14.058594 18.921875 C 13.78125 18.71875 13.621094 18.398438 13.539062 17.921875 C 13.460938 17.441406 13.421875 16.960938 13.421875 16.519531 C 13.421875 16.359375 13.421875 12.640625 13.421875 10.398438 L 18.621094 10.398438 L 18.621094 6 L 13.421875 6 L 13.421875 0 L 9.300781 0 L 9.261719 0.519531 C 9.261719 0.640625 9.261719 0.761719 9.21875 0.878906 C 9.058594 1.71875 8.898438 2.398438 8.621094 2.960938 C 8.019531 4.28125 7.019531 5.28125 5.699219 5.878906 C 5.5 6 5.339844 6.039062 5.140625 6.121094 L 4.621094 6.320312 L 4.621094 10.398438 L 7.019531 10.398438 L 7.019531 12.039062 C 7.019531 14.078125 7.019531 16.078125 7.019531 18.121094 C 7.019531 18.761719 7.058594 19.320312 7.179688 19.800781 C 7.300781 20.480469 7.660156 21.160156 8.300781 21.839844 C 8.941406 22.558594 9.820312 23.121094 10.738281 23.480469 C 11.300781 23.679688 11.859375 23.839844 12.5 23.921875 C 12.859375 23.960938 13.21875 24 13.578125 24 C 13.621094 24 14.058594 24 14.300781 24 L 14.660156 24 C 15.699219 23.960938 16.78125 23.71875 18.019531 23.238281 C 18.179688 23.160156 18.339844 23.121094 18.460938 23.078125 C 18.660156 23 18.898438 22.921875 19.179688 22.800781 L 19.378906 22.679688 L 19.378906 18.039062 Z M 18.578125 22.199219 C 18.460938 22.238281 18.300781 22.28125 18.179688 22.320312 C 18.058594 22.359375 17.898438 22.398438 17.699219 22.480469 C 16.539062 22.960938 15.578125 23.160156 14.578125 23.199219 L 14.300781 23.199219 C 14.101562 23.199219 13.660156 23.199219 13.621094 23.199219 C 13.300781 23.199219 12.941406 23.160156 12.621094 23.121094 C 12.019531 23.039062 11.5 22.921875 11.019531 22.71875 C 10.179688 22.441406 9.421875 21.921875 8.859375 21.320312 C 8.339844 20.71875 8.019531 20.199219 7.941406 19.679688 C 7.859375 19.238281 7.820312 18.71875 7.820312 18.121094 C 7.820312 16.078125 7.820312 14.078125 7.820312 12.039062 L 7.820312 9.601562 L 5.421875 9.601562 L 5.421875 6.839844 C 5.621094 6.800781 5.820312 6.71875 6.019531 6.601562 C 7.5 5.921875 8.621094 4.800781 9.339844 3.28125 C 9.621094 2.640625 9.820312 1.921875 9.980469 1 C 9.980469 0.960938 10.019531 0.878906 10.019531 0.800781 L 12.621094 0.800781 L 12.621094 6.800781 L 17.78125 6.800781 L 17.78125 9.601562 L 12.578125 9.601562 L 12.578125 10 C 12.578125 10.28125 12.578125 16.359375 12.578125 16.558594 C 12.578125 17 12.621094 17.558594 12.699219 18.078125 C 12.820312 18.761719 13.101562 19.28125 13.578125 19.601562 C 14.058594 19.921875 14.578125 20.078125 15.179688 20.160156 C 15.699219 20.238281 16.261719 20.199219 16.820312 20.078125 C 17.460938 19.960938 17.980469 19.839844 18.578125 19.519531 Z M 18.578125 22.199219"/>
</svg>

<svg xmlns="http://www.w3.org/2000/svg" width="32" height="32" viewBox="0 0 24 24">
    <path d="M18.781 18.441c-.64.438-1.203.68-2.082.84-.52.117-.96.117-1.398.078-.442-.039-.88-.199-1.242-.437-.278-.203-.438-.524-.52-1a8.857 8.857 0 0 1-.117-1.402v-6.122h5.2V6h-5.2V0H9.3l-.04.52c0 .12 0 .242-.042.359-.16.84-.32 1.52-.598 2.082A5.768 5.768 0 0 1 5.7 5.879c-.199.121-.36.16-.558.242l-.52.2v4.077H7.02v7.723c0 .64.039 1.2.16 1.68.12.68.48 1.36 1.12 2.039.641.719 1.52 1.281 2.438 1.64.563.2 1.121.36 1.762.442.36.039.719.078 1.078.078h1.083c1.038-.04 2.12-.281 3.359-.762.16-.078.32-.117.44-.16.2-.078.438-.156.72-.277l.199-.121v-4.64zm-.203 3.758c-.117.04-.277.082-.398.121-.121.04-.282.078-.48.16-1.16.48-2.122.68-3.122.72H13.621c-.32 0-.68-.04-1-.079-.601-.082-1.121-.2-1.601-.402a5.298 5.298 0 0 1-2.16-1.399c-.52-.601-.84-1.12-.919-1.64a8.65 8.65 0 0 1-.12-1.559V9.602h-2.4V6.84c.2-.04.4-.121.599-.238C7.5 5.922 8.62 4.8 9.34 3.282c.281-.641.48-1.36.64-2.282 0-.04.04-.121.04-.2h2.601v6h5.16v2.802h-5.203v6.957c0 .441.043 1 .121 1.52.121.683.403 1.202.88 1.523.48.32 1 .476 1.6.558.52.078 1.083.04 1.641-.082.64-.117 1.16-.238 1.758-.558zm0 0"/>
</svg>
